X: 8
T: The French Ambassador  v.2
P: piffero secondo a0864S
O: Deirdre Sweeney
%R: march
F: http://ancients.sudburymuster.org/mus/ssp/pdf/stkildaF.pdf
Z: 2019 John Chambers <jc:trillian.mit.edu>
M: 2/4
L: 1/16
K: G
B2 |\
G6 A2 | B2G2 D2F2 | c6 B2 | A2G2 F2E2 |\
F2EF GFED | G2FG AGFE | c2B2 A2^G2 | A2z2 A2 ||
B2 |\
c2A2 A2A2 | e3d B2^A2 | B2G2 G2G2 | F2F2 F2G2 |\
E6 E2 | D6 D2 | C6 A,2 | B,2B,2 B,2 ||
z2 ||\
A2D2 D2D2 | F3G cBAG | A2E2 E2E2 | A2z2 A2F2 |\
GFED AGFE | BAGF cBAG | d4 B2A2 | G6 |]


